!!!COM: Music21
!!!OTL: march_Sonnys-Dream
!!!OMV: march_Sonnys-Dream
**kern
*clefG2
*k[f#]
*G:
*M4/4
=1
16aLL
16aJJ
=||
4d
8.dL
16eJk
4f#
8r
8a
=
4a
8.aL
16gJk
4f#
8r
8d
=
4ff#
8ff#L
8eeJ
4dd
8aL
8bJ
=
4b
8aL
8gJ
4a
8r
8a
=
4ee
8eeL
8ff#J
4ee
8r
8a
!!linebreak:original
=
4ee
8eeL
8ff#J
4ee
8r
8dd
=
4dd
8bL
8gJ
4g
8aL
8bJ
=
4a
8gL
8f#J
4e
4r
=||
4d
8.dL
16eJk
4f#
8r
8a
=
4a
8.aL
16gJk
4f#
8r
8d
=
4ff#
8ff#L
8eeJ
4dd
8aL
8bJ
!!linebreak:original
=
4b
8aL
8gJ
4a
8r
8a
=
4ee
8eeL
8ff#J
4ee
8r
8a
=
4ee
8eeL
8ff#J
4ee
8r
8dd
=
4dd
8bL
8gJ
4g
8aL
8bJ
=
4a
8gL
8f#J
4e
4r
=||
*-
